DisplayMeasurement/dells240m.cal
CAL    

DESCRIPTOR "Argyll Device Calibration Curves"
ORIGINATOR "Argyll dispcal"
CREATED "Thu Mar 30 17:46:53 2017"
DEVICE_CLASS "DISPLAY"
COLOR_REP "RGB"
VIDEO_LUT_CALIBRATION_POSSIBLE "YES"
TV_OUTPUT_ENCODING "NO"
TARGET_WHITE_XYZ "55.404386 58.294110 63.476478"
TARGET_GAMMA "2.400000"
DEGREE_OF_BLACK_OUTPUT_OFFSET "1.000000"
BLACK_POINT_CORRECTION "0.388969"
BLACK_NEUTRAL_BLEND_RATE "4.000000"
QUALITY "medium"

NUMBER_OF_FIELDS 4
BEGIN_DATA_FORMAT
RGB_I RGB_R RGB_G RGB_B 
END_DATA_FORMAT

NUMBER_OF_SETS 256
BEGIN_DATA
0.00000 0.00000 0.00473851 0.00000 
0.00392157 0.00000 0.00653554 0.00000 
0.00784314 0.00000 0.00839429 0.00000 
0.0117647 0.000623343 0.0103180 0.00000 
0.0156863 0.00223754 0.0123101 0.00000 
0.0196078 0.00391938 0.0143744 0.00000 
0.0235294 0.00567320 0.0165148 0.000325877 
0.0274510 0.00750372 0.0187357 0.00177047 
0.0313725 0.00941610 0.0210416 0.00329884 
0.0352941 0.0114159 0.0234375 0.00491850 
0.0392157 0.0135094 0.0259288 0.00663787 
0.0431373 0.0157032 0.0285214 0.00846647 
0.0470588 0.0180047 0.0312214 0.0104150 
0.0509804 0.0204221 0.0340358 0.0124958 
0.0549020 0.0229643 0.0369720 0.0147226 
0.0588235 0.0256411 0.0400371 0.0171114 
0.0627451 0.0284623 0.0432352 0.0196807 
0.0666667 0.0314288 0.0465682 0.0224516 
0.0705882 0.0345403 0.0500312 0.0254453 
0.0745098 0.0377950 0.0536157 0.0286696 
0.0784314 0.0411841 0.0573169 0.0321245 
0.0823529 0.0446965 0.0611255 0.0358011 
0.0862745 0.0483169 0.0650271 0.0396830 
0.0901961 0.0520294 0.0690012 0.0437497 
0.0941176 0.0558129 0.0730406 0.0479751 
0.0980392 0.0596505 0.0771343 0.0523192 
0.101961 0.0635417 0.0812799 0.0567414 
0.105882 0.0674815 0.0854691 0.0612326 
0.109804 0.0714625 0.0896903 0.0657810 
0.113725 0.0754774 0.0939481 0.0703780 
0.117647 0.0795192 0.0982480 0.0750279 
0.121569 0.0835956 0.102568 0.0797439 
0.125490 0.0876944 0.106908 0.0845117 
0.129412 0.0918068 0.111276 0.0893264 
0.133333 0.0959321 0.115678 0.0941421 
0.137255 0.100054 0.120109 0.0989607 
0.141176 0.104176 0.124541 0.103747 
0.145098 0.108298 0.128988 0.108503 
0.149020 0.112405 0.133437 0.113224 
0.152941 0.116496 0.137872 0.117866 
0.156863 0.120576 0.142306 0.122443 
0.160784 0.124629 0.146731 0.126997 
0.164706 0.128635 0.151151 0.131504 
0.168627 0.132616 0.155524 0.135978 
0.172549 0.136576 0.159854 0.140433 
0.176471 0.140530 0.164161 0.144890 
0.180392 0.144467 0.168441 0.149354 
0.184314 0.148374 0.172702 0.153789 
0.188235 0.152255 0.176946 0.158173 
0.192157 0.156128 0.181168 0.162549 
0.196078 0.159973 0.185352 0.166885 
0.200000 0.163784 0.189538 0.171164 
0.203922 0.167588 0.193730 0.175420 
0.207843 0.171391 0.197924 0.179671 
0.211765 0.175161 0.202118 0.183888 
0.215686 0.178897 0.206313 0.188056 
0.219608 0.182592 0.210478 0.192153 
0.223529 0.186268 0.214579 0.196205 
0.227451 0.189953 0.218620 0.200243 
0.231373 0.193638 0.222600 0.204253 
0.235294 0.197311 0.226546 0.208214 
0.239216 0.200978 0.230491 0.212130 
0.243137 0.204640 0.234424 0.215995 
0.247059 0.208318 0.238324 0.219856 
0.250980 0.212009 0.242202 0.223723 
0.254902 0.215692 0.246063 0.227576 
0.258824 0.219357 0.249910 0.231401 
0.262745 0.223007 0.253750 0.235204 
0.266667 0.226652 0.257576 0.239004 
0.270588 0.230286 0.261387 0.242788 
0.274510 0.233883 0.265191 0.246531 
0.278431 0.237431 0.268986 0.250239 
0.282353 0.240979 0.272786 0.253970 
0.286275 0.244541 0.276588 0.257744 
0.290196 0.248110 0.280371 0.261537 
0.294118 0.251685 0.284119 0.265341 
0.298039 0.255251 0.287843 0.269128 
0.301961 0.258809 0.291585 0.272897 
0.305882 0.262376 0.295347 0.276663 
0.309804 0.265936 0.299105 0.280400 
0.313725 0.269487 0.302850 0.284110 
0.317647 0.273025 0.306583 0.287787 
0.321569 0.276553 0.310304 0.291443 
0.325490 0.280093 0.314038 0.295115 
0.329412 0.283633 0.317787 0.298800 
0.333333 0.287155 0.321555 0.302464 
0.337255 0.290654 0.325335 0.306105 
0.341176 0.294123 0.329124 0.309730 
0.345098 0.297559 0.332924 0.313341 
0.349020 0.300965 0.336741 0.316949 
0.352941 0.304336 0.340536 0.320530 
0.356863 0.307697 0.344302 0.324117 
0.360784 0.311048 0.348038 0.327711 
0.364706 0.314395 0.351743 0.331307 
0.368627 0.317732 0.355419 0.334905 
0.372549 0.321060 0.359080 0.338476 
0.376471 0.324377 0.362726 0.342022 
0.380392 0.327666 0.366377 0.345523 
0.384314 0.330909 0.370053 0.348949 
0.388235 0.334119 0.373743 0.352301 
0.392157 0.337363 0.377442 0.355651 
0.396078 0.340660 0.381139 0.359050 
0.400000 0.344003 0.384833 0.362495 
0.403922 0.347378 0.388513 0.365962 
0.407843 0.350769 0.392164 0.369438 
0.411765 0.354165 0.395769 0.372917 
0.415686 0.357564 0.399330 0.376400 
0.419608 0.360964 0.402898 0.379884 
0.423529 0.364346 0.406493 0.383377 
0.427451 0.367710 0.410114 0.386855 
0.431373 0.371038 0.413747 0.390310 
0.435294 0.374354 0.417374 0.393726 
0.439216 0.377676 0.420996 0.397148 
0.443137 0.380995 0.424615 0.400575 
0.447059 0.384297 0.428232 0.403989 
0.450980 0.387581 0.431842 0.407372 
0.454902 0.390863 0.435419 0.410723 
0.458824 0.394130 0.438966 0.414068 
0.462745 0.397386 0.442478 0.417398 
0.466667 0.400632 0.445972 0.420725 
0.470588 0.403869 0.449482 0.424049 
0.474510 0.407096 0.453003 0.427366 
0.478431 0.410309 0.456526 0.430677 
0.482353 0.413509 0.460032 0.433986 
0.486275 0.416697 0.463531 0.437292 
0.490196 0.419894 0.467032 0.440599 
0.494118 0.423101 0.470524 0.443934 
0.498039 0.426304 0.474023 0.447304 
0.501961 0.429504 0.477523 0.450672 
0.505882 0.432699 0.481022 0.454039 
0.509804 0.435894 0.484519 0.457404 
0.513725 0.439090 0.488014 0.460765 
0.517647 0.442286 0.491507 0.464121 
0.521569 0.445479 0.494996 0.467473 
0.525490 0.448669 0.498481 0.470825 
0.529412 0.451861 0.501970 0.474166 
0.533333 0.455043 0.505455 0.477514 
0.537255 0.458218 0.508942 0.480861 
0.541176 0.461408 0.512440 0.484188 
0.545098 0.464601 0.515947 0.487524 
0.549020 0.467792 0.519465 0.490880 
0.552941 0.470976 0.522995 0.494253 
0.556863 0.474146 0.526540 0.497634 
0.560784 0.477289 0.530100 0.501016 
0.564706 0.480422 0.533668 0.504373 
0.568627 0.483583 0.537252 0.507689 
0.572549 0.486767 0.540834 0.511024 
0.576471 0.489968 0.544405 0.514396 
0.580392 0.493170 0.547997 0.517785 
0.584314 0.496382 0.551610 0.521182 
0.588235 0.499602 0.555230 0.524574 
0.592157 0.502832 0.558841 0.527970 
0.596078 0.506074 0.562444 0.531372 
0.600000 0.509326 0.566030 0.534790 
0.603922 0.512583 0.569598 0.538217 
0.607843 0.515837 0.573189 0.541647 
0.611765 0.519098 0.576813 0.545084 
0.615686 0.522370 0.580458 0.548526 
0.619608 0.525646 0.584124 0.552007 
0.623529 0.528917 0.587815 0.555523 
0.627451 0.532180 0.591542 0.559064 
0.631373 0.535433 0.595301 0.562614 
0.635294 0.538669 0.599078 0.566173 
0.639216 0.541888 0.602841 0.569720 
0.643137 0.545082 0.606589 0.573254 
0.647059 0.548234 0.610318 0.576757 
0.650980 0.551330 0.614027 0.580202 
0.654902 0.554370 0.617740 0.583558 
0.658824 0.557357 0.621455 0.586804 
0.662745 0.560322 0.625166 0.589943 
0.666667 0.563344 0.628861 0.592981 
0.670588 0.566430 0.632547 0.596026 
0.674510 0.569582 0.636210 0.599143 
0.678431 0.572793 0.639843 0.602336 
0.682353 0.576051 0.643449 0.605605 
0.686275 0.579342 0.647012 0.608935 
0.690196 0.582648 0.650518 0.612305 
0.694118 0.585964 0.653957 0.615691 
0.698039 0.589290 0.657330 0.619084 
0.701961 0.592612 0.660639 0.622484 
0.705882 0.595932 0.663898 0.625893 
0.709804 0.599252 0.667178 0.629287 
0.713725 0.602568 0.670498 0.632672 
0.717647 0.605866 0.673877 0.636044 
0.721569 0.609139 0.677314 0.639411 
0.725490 0.612395 0.680797 0.642758 
0.729412 0.615652 0.684314 0.646079 
0.733333 0.618895 0.687859 0.649366 
0.737255 0.622121 0.691419 0.652655 
0.741176 0.625332 0.694988 0.655932 
0.745098 0.628529 0.698571 0.659196 
0.749020 0.631713 0.702171 0.662447 
0.752941 0.634883 0.705801 0.665686 
0.756863 0.638029 0.709453 0.668918 
0.760784 0.641147 0.713105 0.672168 
0.764706 0.644237 0.716753 0.675422 
0.768627 0.647298 0.720393 0.678683 
0.772549 0.650346 0.724026 0.681956 
0.776471 0.653378 0.727686 0.685227 
0.780392 0.656388 0.731368 0.688511 
0.784314 0.659376 0.735069 0.691816 
0.788235 0.662342 0.738791 0.695131 
0.792157 0.665281 0.742532 0.698444 
0.796078 0.668191 0.746298 0.701763 
0.800000 0.671073 0.750083 0.705073 
0.803922 0.673975 0.753889 0.708352 
0.807843 0.676934 0.757717 0.711586 
0.811765 0.679949 0.761559 0.714823 
0.815686 0.683009 0.765401 0.718138 
0.819608 0.686102 0.769263 0.721536 
0.823529 0.689223 0.773137 0.724997 
0.827451 0.692363 0.777000 0.728496 
0.831373 0.695527 0.780854 0.732024 
0.835294 0.698708 0.784703 0.735565 
0.839216 0.701903 0.788532 0.739130 
0.843137 0.705103 0.792330 0.742717 
0.847059 0.708306 0.796105 0.746317 
0.850980 0.711511 0.799904 0.749917 
0.854902 0.714710 0.803759 0.753513 
0.858824 0.717885 0.807666 0.757108 
0.862745 0.721040 0.811618 0.760680 
0.866667 0.724219 0.815598 0.764205 
0.870588 0.727426 0.819598 0.767738 
0.874510 0.730650 0.823630 0.771319 
0.878431 0.733887 0.827690 0.774926 
0.882353 0.737134 0.831785 0.778552 
0.886275 0.740387 0.835909 0.782210 
0.890196 0.743647 0.840062 0.785876 
0.894118 0.746902 0.844230 0.789547 
0.898039 0.750185 0.848395 0.793194 
0.901961 0.753501 0.852559 0.796861 
0.905882 0.756841 0.856769 0.800564 
0.909804 0.760192 0.861047 0.804294 
0.913725 0.763542 0.865377 0.808026 
0.917647 0.766911 0.869765 0.811742 
0.921569 0.770306 0.874197 0.815481 
0.925490 0.773708 0.878657 0.819243 
0.929412 0.777114 0.883120 0.823006 
0.933333 0.780539 0.887631 0.826781 
0.937255 0.783976 0.892212 0.830587 
0.941176 0.787441 0.896853 0.834396 
0.945098 0.790927 0.901555 0.838227 
0.949020 0.794433 0.906349 0.842063 
0.952941 0.797950 0.911279 0.845913 
0.956863 0.801468 0.916341 0.849770 
0.960784 0.804984 0.921581 0.853633 
0.964706 0.808501 0.927034 0.857505 
0.968627 0.812019 0.932751 0.861387 
0.972549 0.815531 0.938781 0.865277 
0.976471 0.819036 0.945166 0.869172 
0.980392 0.822533 0.951919 0.873070 
0.984314 0.826023 0.959037 0.876972 
0.988235 0.829506 0.966496 0.880878 
0.992157 0.832981 0.974307 0.884787 
0.996078 0.836449 0.982494 0.888699 
1.000000 0.839909 0.991087 0.892616 
END_DATA
CAL    

DESCRIPTOR "Argyll Calibration options and model"
ORIGINATOR "Argyll dispcal"
CREATED "Thu Mar 30 17:46:53 201"

NUMBER_OF_FIELDS 3
BEGIN_DATA_FORMAT
R_P G_P B_P 
END_DATA_FORMAT

NUMBER_OF_SETS 32
BEGIN_DATA
0.000973706 0.00150272 0.00296460 
0.999026 0.998497 0.997035 
1.402544 1.473721 1.426223 
0.920972 1.037279 0.886119 
0.0655789 -0.00673272 0.129097 
0.156999 0.104834 0.123196 
0.144383 0.121491 0.0881527 
0.102504 0.0905368 0.101060 
0.0768579 0.0728384 0.0736625 
0.0562472 0.0705856 0.0670639 
0.0478108 0.0677788 0.0643583 
0.0477532 0.0709977 0.0601316 
0.0461147 0.0596010 0.0506268 
0.0448826 0.0559894 0.0408166 
0.0405143 0.0468614 0.0447107 
0.0362613 0.0427196 0.0436561 
0.0321836 0.0417125 0.0397853 
0.0293730 0.0397039 0.0361809 
0.0296138 0.0344621 0.0373316 
0.0267602 0.0386771 0.0322931 
0.0265385 0.0365625 0.0311866 
0.0262056 0.0342930 0.0297735 
0.0241782 0.0314021 0.0279417 
0.0230512 0.0284369 0.0247460 
0.0213330 0.0297324 0.0262743 
0.0178688 0.0310057 0.0232137 
0.0187603 0.0243546 0.0251293 
0.0165570 0.0244237 0.0200811 
0.0165796 0.0225861 0.0218722 
0.0152386 0.0255144 0.0209142 
0.0134748 0.0249696 0.0196257 
0.0116087 0.0216820 0.0191055 
END_DATA
