DisplayMeasurement/mbpBuiltin.cal
CAL    

DESCRIPTOR "Argyll Device Calibration Curves"
ORIGINATOR "Argyll dispcal"
CREATED "Thu Mar 30 22:23:51 2017"
DEVICE_CLASS "DISPLAY"
COLOR_REP "RGB"
VIDEO_LUT_CALIBRATION_POSSIBLE "YES"
TV_OUTPUT_ENCODING "NO"
TARGET_WHITE_XYZ "188.057620 197.866132 215.456504"
TARGET_GAMMA "2.400000"
DEGREE_OF_BLACK_OUTPUT_OFFSET "1.000000"
BLACK_POINT_CORRECTION "0.174919"
BLACK_NEUTRAL_BLEND_RATE "4.000000"
QUALITY "medium"

NUMBER_OF_FIELDS 4
BEGIN_DATA_FORMAT
RGB_I RGB_R RGB_G RGB_B 
END_DATA_FORMAT

NUMBER_OF_SETS 256
BEGIN_DATA
0.00000 0.00000 0.00000 0.00000 
0.00392157 0.00000 0.00000 0.00000 
0.00784314 0.00000 0.00000 0.00000 
0.0117647 0.00000 0.000177058 0.00000 
0.0156863 0.00000 0.00320265 0.00000 
0.0196078 0.00109556 0.00640411 0.000155872 
0.0235294 0.00353627 0.00979725 0.00237650 
0.0274510 0.00615514 0.0133998 0.00475377 
0.0313725 0.00897242 0.0172318 0.00730486 
0.0352941 0.0120115 0.0213158 0.0100496 
0.0392157 0.0152998 0.0256775 0.0130108 
0.0431373 0.0188691 0.0303262 0.0162152 
0.0470588 0.0227570 0.0352119 0.0196941 
0.0509804 0.0270065 0.0402589 0.0234842 
0.0549020 0.0316362 0.0453913 0.0276253 
0.0588235 0.0366136 0.0505229 0.0321244 
0.0627451 0.0418713 0.0555656 0.0369486 
0.0666667 0.0473150 0.0604525 0.0420504 
0.0705882 0.0528219 0.0651602 0.0473596 
0.0745098 0.0582635 0.0696931 0.0527808 
0.0784314 0.0635513 0.0740677 0.0581970 
0.0823529 0.0686537 0.0783051 0.0635189 
0.0862745 0.0735643 0.0824266 0.0687072 
0.0901961 0.0782922 0.0864501 0.0737494 
0.0941176 0.0828610 0.0903866 0.0786567 
0.0980392 0.0872872 0.0942520 0.0834401 
0.101961 0.0915865 0.0980577 0.0881098 
0.105882 0.0957834 0.101813 0.0926723 
0.109804 0.0998932 0.105526 0.0971512 
0.113725 0.103925 0.109201 0.101548 
0.117647 0.107906 0.112846 0.105869 
0.121569 0.111843 0.116457 0.110119 
0.125490 0.115737 0.120043 0.114303 
0.129412 0.119608 0.123600 0.118421 
0.133333 0.123443 0.127136 0.122490 
0.137255 0.127246 0.130665 0.126497 
0.141176 0.131023 0.134187 0.130468 
0.145098 0.134782 0.137725 0.134405 
0.149020 0.138548 0.141279 0.138353 
0.152941 0.142310 0.144854 0.142299 
0.156863 0.146081 0.148460 0.146247 
0.160784 0.149884 0.152109 0.150220 
0.164706 0.153711 0.155793 0.154214 
0.168627 0.157570 0.159526 0.158239 
0.172549 0.161484 0.163308 0.162329 
0.176471 0.165422 0.167128 0.166453 
0.180392 0.169390 0.170986 0.170612 
0.184314 0.173376 0.174857 0.174783 
0.188235 0.177397 0.178759 0.178982 
0.192157 0.181451 0.182678 0.183195 
0.196078 0.185511 0.186603 0.187395 
0.200000 0.189568 0.190526 0.191572 
0.203922 0.193641 0.194452 0.195751 
0.207843 0.197719 0.198366 0.199891 
0.211765 0.201785 0.202267 0.203987 
0.215686 0.205851 0.206167 0.208058 
0.219608 0.209928 0.210073 0.212096 
0.223529 0.213969 0.213953 0.216070 
0.227451 0.218022 0.217840 0.220041 
0.231373 0.222103 0.221748 0.224010 
0.235294 0.226193 0.225666 0.227968 
0.239216 0.230290 0.229593 0.231923 
0.243137 0.234393 0.233540 0.235880 
0.247059 0.238500 0.237499 0.239835 
0.250980 0.242623 0.241470 0.243799 
0.254902 0.246771 0.245456 0.247782 
0.258824 0.250913 0.249437 0.251748 
0.262745 0.255049 0.253409 0.255691 
0.266667 0.259179 0.257368 0.259611 
0.270588 0.263318 0.261317 0.263525 
0.274510 0.267463 0.265266 0.267439 
0.278431 0.271595 0.269210 0.271344 
0.282353 0.275654 0.273137 0.275213 
0.286275 0.279656 0.277011 0.279018 
0.290196 0.283675 0.280872 0.282842 
0.294118 0.287696 0.284752 0.286711 
0.298039 0.291682 0.288626 0.290601 
0.301961 0.295644 0.292478 0.294488 
0.305882 0.299565 0.296320 0.298381 
0.309804 0.303477 0.300147 0.302269 
0.313725 0.307379 0.303983 0.306184 
0.317647 0.311257 0.307816 0.310106 
0.321569 0.315114 0.311645 0.314029 
0.325490 0.318948 0.315476 0.317955 
0.329412 0.322757 0.319302 0.321879 
0.333333 0.326564 0.323124 0.325801 
0.337255 0.330393 0.326953 0.329753 
0.341176 0.334232 0.330790 0.333705 
0.345098 0.338080 0.334629 0.337648 
0.349020 0.341940 0.338473 0.341584 
0.352941 0.345813 0.342326 0.345518 
0.356863 0.349717 0.346185 0.349452 
0.360784 0.353635 0.350070 0.353410 
0.364706 0.357558 0.353963 0.357352 
0.368627 0.361518 0.357860 0.361299 
0.372549 0.365488 0.361776 0.365257 
0.376471 0.369477 0.365692 0.369217 
0.380392 0.373484 0.369622 0.373191 
0.384314 0.377529 0.373566 0.377171 
0.388235 0.381602 0.377536 0.381171 
0.392157 0.385647 0.381531 0.385168 
0.396078 0.389611 0.385511 0.389113 
0.400000 0.393517 0.389440 0.392979 
0.403922 0.397468 0.393333 0.396828 
0.407843 0.401472 0.397264 0.400748 
0.411765 0.405501 0.401236 0.404732 
0.415686 0.409515 0.405217 0.408742 
0.419608 0.413504 0.409179 0.412743 
0.423529 0.417482 0.413126 0.416720 
0.427451 0.421449 0.417076 0.420684 
0.431373 0.425427 0.421025 0.424640 
0.435294 0.429420 0.424993 0.428605 
0.439216 0.433419 0.428982 0.432579 
0.443137 0.437383 0.432982 0.436543 
0.447059 0.441370 0.436966 0.440476 
0.450980 0.445375 0.440974 0.444440 
0.454902 0.449373 0.444993 0.448416 
0.458824 0.453342 0.449002 0.452385 
0.462745 0.457306 0.452991 0.456327 
0.466667 0.461270 0.456975 0.460269 
0.470588 0.465218 0.460953 0.464204 
0.474510 0.469162 0.464919 0.468116 
0.478431 0.473096 0.468880 0.472022 
0.482353 0.477022 0.472836 0.475917 
0.486275 0.480942 0.476789 0.479801 
0.490196 0.484857 0.480745 0.483679 
0.494118 0.488767 0.484705 0.487551 
0.498039 0.492680 0.488668 0.491416 
0.501961 0.496614 0.492640 0.495283 
0.505882 0.500546 0.496613 0.499175 
0.509804 0.504475 0.500579 0.503066 
0.513725 0.508403 0.504537 0.506955 
0.517647 0.512328 0.508487 0.510842 
0.521569 0.516247 0.512425 0.514725 
0.525490 0.520157 0.516347 0.518602 
0.529412 0.524068 0.520250 0.522470 
0.533333 0.527967 0.524137 0.526338 
0.537255 0.531875 0.528007 0.530185 
0.541176 0.535764 0.531873 0.534038 
0.545098 0.539621 0.535718 0.537887 
0.549020 0.543486 0.539543 0.541710 
0.552941 0.547341 0.543367 0.545546 
0.556863 0.551200 0.547183 0.549389 
0.560784 0.555083 0.551004 0.553236 
0.564706 0.558971 0.554845 0.557085 
0.568627 0.562820 0.558687 0.560940 
0.572549 0.566675 0.562504 0.564758 
0.576471 0.570588 0.566340 0.568551 
0.580392 0.574530 0.570221 0.572405 
0.584314 0.578472 0.574113 0.576317 
0.588235 0.582405 0.578001 0.580249 
0.592157 0.586349 0.581888 0.584177 
0.596078 0.590303 0.585789 0.588121 
0.600000 0.594273 0.589707 0.592088 
0.603922 0.598253 0.593642 0.596087 
0.607843 0.602237 0.597584 0.600104 
0.611765 0.606218 0.601528 0.604126 
0.615686 0.610186 0.605463 0.608148 
0.619608 0.614175 0.609391 0.612154 
0.623529 0.618170 0.613330 0.616179 
0.627451 0.622179 0.617277 0.620218 
0.631373 0.626204 0.621246 0.624282 
0.635294 0.630266 0.625234 0.628364 
0.639216 0.634357 0.629252 0.632475 
0.643137 0.638481 0.633302 0.636612 
0.647059 0.642598 0.637392 0.640778 
0.650980 0.646647 0.641494 0.644940 
0.654902 0.650578 0.645555 0.649036 
0.658824 0.654385 0.649529 0.653012 
0.662745 0.658072 0.653406 0.656847 
0.666667 0.661731 0.657188 0.660545 
0.670588 0.665497 0.660962 0.664137 
0.674510 0.669376 0.664808 0.667790 
0.678431 0.673367 0.668729 0.671540 
0.682353 0.677435 0.672717 0.675391 
0.686275 0.681523 0.676729 0.679326 
0.690196 0.685582 0.680722 0.683299 
0.694118 0.689594 0.684677 0.687268 
0.698039 0.693571 0.688595 0.691211 
0.701961 0.697522 0.692492 0.695123 
0.705882 0.701454 0.696378 0.699018 
0.709804 0.705372 0.700261 0.702891 
0.713725 0.709281 0.704142 0.706765 
0.717647 0.713196 0.708028 0.710637 
0.721569 0.717120 0.711934 0.714524 
0.725490 0.721025 0.715865 0.718435 
0.729412 0.724948 0.719797 0.722366 
0.733333 0.728873 0.723756 0.726311 
0.737255 0.732789 0.727717 0.730300 
0.741176 0.736704 0.731684 0.734294 
0.745098 0.740619 0.735664 0.738296 
0.749020 0.744536 0.739663 0.742312 
0.752941 0.748448 0.743675 0.746346 
0.756863 0.752353 0.747689 0.750399 
0.760784 0.756251 0.751707 0.754455 
0.764706 0.760143 0.755731 0.758515 
0.768627 0.764015 0.759746 0.762582 
0.772549 0.767907 0.763757 0.766625 
0.776471 0.771807 0.767773 0.770666 
0.780392 0.775737 0.771794 0.774708 
0.784314 0.779716 0.775836 0.778742 
0.788235 0.783719 0.779906 0.782775 
0.792157 0.787697 0.783968 0.786801 
0.796078 0.791624 0.787981 0.790772 
0.800000 0.795562 0.791945 0.794653 
0.803922 0.799589 0.795937 0.798454 
0.807843 0.803696 0.799971 0.802286 
0.811765 0.807829 0.804014 0.806173 
0.815686 0.811955 0.808033 0.810090 
0.819608 0.816061 0.812031 0.813995 
0.823529 0.820158 0.816003 0.817886 
0.827451 0.824245 0.819965 0.821747 
0.831373 0.828324 0.823920 0.825600 
0.835294 0.832391 0.827871 0.829447 
0.839216 0.836436 0.831811 0.833296 
0.843137 0.840481 0.835737 0.837149 
0.847059 0.844500 0.839663 0.840998 
0.850980 0.848454 0.843570 0.844855 
0.854902 0.852363 0.847429 0.848708 
0.858824 0.856302 0.851281 0.852521 
0.862745 0.860250 0.855153 0.856296 
0.866667 0.864176 0.859019 0.860122 
0.870588 0.868090 0.862861 0.863997 
0.874510 0.871999 0.866691 0.867883 
0.878431 0.875915 0.870519 0.871770 
0.882353 0.879812 0.874357 0.875669 
0.886275 0.883686 0.878175 0.879585 
0.890196 0.887589 0.881978 0.883510 
0.894118 0.891493 0.885796 0.887407 
0.898039 0.895387 0.889603 0.891338 
0.901961 0.899270 0.893405 0.895300 
0.905882 0.903125 0.897205 0.899276 
0.909804 0.906993 0.900991 0.903269 
0.913725 0.910860 0.904789 0.907261 
0.917647 0.914705 0.908592 0.911288 
0.921569 0.918531 0.912393 0.915353 
0.925490 0.922367 0.916188 0.919427 
0.929412 0.926183 0.919998 0.923498 
0.933333 0.929996 0.923797 0.927594 
0.937255 0.933798 0.927599 0.931676 
0.941176 0.937591 0.931406 0.935761 
0.945098 0.941362 0.935224 0.939845 
0.949020 0.945115 0.939049 0.943942 
0.952941 0.948850 0.942885 0.948046 
0.956863 0.952571 0.946730 0.952160 
0.960784 0.956280 0.950588 0.956281 
0.964706 0.959977 0.954460 0.960412 
0.968627 0.963656 0.958345 0.964558 
0.972549 0.967317 0.962242 0.968720 
0.976471 0.970962 0.966148 0.972896 
0.980392 0.974588 0.970066 0.977087 
0.984314 0.978198 0.973994 0.981292 
0.988235 0.981790 0.977932 0.985512 
0.992157 0.985365 0.981881 0.989746 
0.996078 0.988924 0.985841 0.993995 
1.000000 0.992465 0.989812 0.998258 
END_DATA
CAL    

DESCRIPTOR "Argyll Calibration options and model"
ORIGINATOR "Argyll dispcal"
CREATED "Thu Mar 30 22:23:51 201"

NUMBER_OF_FIELDS 3
BEGIN_DATA_FORMAT
R_P G_P B_P 
END_DATA_FORMAT

NUMBER_OF_SETS 32
BEGIN_DATA
0.000141750 0.000521572 0.00198076 
0.999858 0.999478 0.998019 
1.941891 1.866884 1.693870 
0.574640 0.416781 0.468660 
0.0892163 0.193745 0.174681 
0.0835764 0.169397 0.183763 
0.126548 0.121654 0.169441 
0.137104 0.106029 0.0850581 
0.0823317 0.0761218 0.0771102 
0.0766446 0.0778190 0.0872553 
0.0701851 0.0668413 0.0801279 
0.0573602 0.0643965 0.0712035 
0.0683783 0.0677180 0.0684884 
0.0652461 0.0604465 0.0648726 
0.0526489 0.0552695 0.0629070 
0.0601886 0.0611487 0.0586709 
0.0537774 0.0425679 0.0565833 
0.0514388 0.0508061 0.0516878 
0.0486486 0.0559292 0.0499963 
0.0491203 0.0401462 0.0459654 
0.0409848 0.0433125 0.0442009 
0.0408167 0.0430464 0.0416676 
0.0410404 0.0381444 0.0392855 
0.0378098 0.0440111 0.0378006 
0.0364257 0.0358950 0.0350858 
0.0334482 0.0366336 0.0345544 
0.0327026 0.0399478 0.0322023 
0.0312532 0.0382153 0.0311200 
0.0299553 0.0301728 0.0291105 
0.0284286 0.0314873 0.0284342 
0.0240467 0.0330347 0.0274897 
0.0244249 0.0348767 0.0257656 
END_DATA
