DisplayMeasurement/targ_256ramps_0ofps_11bw.ti1
CTI1   

DESCRIPTOR "Argyll Calibration Target chart information 1"
ORIGINATOR "Argyll targen"
CREATED "Wed Nov  4 12:03:13 2015"
APPROX_WHITE_POINT "95.106486 100.000000 108.844025"
COLOR_REP "RGB"
WHITE_COLOR_PATCHES "11"
BLACK_COLOR_PATCHES "11"
SINGLE_DIM_STEPS "256"

NUMBER_OF_FIELDS 7
BEGIN_DATA_FORMAT
SAMPLE_ID RGB_R RGB_G RGB_B XYZ_X XYZ_Y XYZ_Z 
END_DATA_FORMAT

NUMBER_OF_SETS 787
BEGIN_DATA
1 100.0000 100.0000 100.0000 95.10649 100.0000 108.8440 
2 0.00000 24.31373 0.00000 2.705533 4.410590 1.568516 
3 0.00000 25.49020 0.00000 2.871542 4.742561 1.623853 
4 43.52941 0.00000 0.00000 7.490398 4.346470 1.304129 
5 72.94118 0.00000 0.00000 21.04846 11.33705 1.939436 
6 77.25490 0.00000 0.00000 23.79713 12.75428 2.068234 
7 96.86275 0.00000 0.00000 38.97658 20.58085 2.779516 
8 97.25490 0.00000 0.00000 39.32670 20.76137 2.795922 
9 0.00000 0.00000 0.784314 1.010849 1.004339 1.057141 
10 0.00000 18.03922 0.00000 1.967302 2.934333 1.322437 
11 0.00000 96.86275 0.00000 33.93077 66.85233 11.97702 
12 0.00000 98.82353 0.00000 35.46503 69.92043 12.48844 
13 0.00000 97.64706 0.00000 34.53959 68.06979 12.17996 
14 0.00000 0.00000 5.098039 1.071926 1.028766 1.378842 
15 0.00000 0.00000 4.313725 1.059806 1.023919 1.315006 
16 0.00000 0.00000 51.76471 5.123580 2.649172 22.71932 
17 0.00000 0.00000 96.07843 17.31808 7.526203 86.94903 
18 0.00000 0.00000 16.47059 1.413776 1.165484 3.179402 
19 0.00000 0.00000 21.17647 1.659255 1.263660 4.472366 
20 0.00000 0.00000 20.39216 1.613690 1.245437 4.232370 
21 0.00000 0.00000 23.52941 1.807528 1.322960 5.253330 
22 0.00000 0.00000 35.29412 2.827173 1.730754 10.62391 
23 12.54902 0.00000 0.00000 1.589745 1.304074 1.027634 
24 0.784314 0.00000 0.00000 1.024786 1.012780 1.001161 
25 1.176471 0.00000 0.00000 1.037179 1.019170 1.001742 
26 1.568627 0.00000 0.00000 1.049572 1.025560 1.002323 
27 1.960784 0.00000 0.00000 1.061965 1.031950 1.002904 
28 2.352941 0.00000 0.00000 1.074358 1.038339 1.003484 
29 2.745098 0.00000 0.00000 1.086751 1.044729 1.004065 
30 3.137255 0.00000 0.00000 1.099144 1.051119 1.004646 
31 3.529412 0.00000 0.00000 1.111538 1.057509 1.005226 
32 3.921569 0.00000 0.00000 1.123931 1.063899 1.005807 
33 4.313725 0.00000 0.00000 1.136640 1.070452 1.006403 
34 4.705882 0.00000 0.00000 1.150112 1.077398 1.007034 
35 5.098039 0.00000 0.00000 1.164330 1.084729 1.007700 
36 5.490196 0.00000 0.00000 1.179303 1.092449 1.008402 
37 5.882353 0.00000 0.00000 1.195044 1.100565 1.009139 
38 6.274510 0.00000 0.00000 1.211562 1.109082 1.009913 
39 6.666667 0.00000 0.00000 1.228869 1.118006 1.010724 
40 7.058824 0.00000 0.00000 1.246975 1.127341 1.011573 
41 7.450980 0.00000 0.00000 1.265890 1.137094 1.012459 
42 7.843137 0.00000 0.00000 1.285624 1.147269 1.013384 
43 8.235294 0.00000 0.00000 1.306187 1.157871 1.014347 
44 8.627451 0.00000 0.00000 1.327588 1.168906 1.015350 
45 9.019608 0.00000 0.00000 1.349838 1.180378 1.016393 
46 9.411765 0.00000 0.00000 1.372945 1.192292 1.017476 
47 9.803922 0.00000 0.00000 1.396919 1.204653 1.018599 
48 10.19608 0.00000 0.00000 1.421768 1.217465 1.019763 
49 10.58824 0.00000 0.00000 1.447503 1.230734 1.020969 
50 10.98039 0.00000 0.00000 1.474130 1.244463 1.022217 
51 11.37255 0.00000 0.00000 1.501659 1.258657 1.023507 
52 11.76471 0.00000 0.00000 1.530099 1.273321 1.024840 
53 12.15686 0.00000 0.00000 1.559458 1.288459 1.026215 
54 100.0000 100.0000 100.0000 95.10649 100.0000 108.8440 
55 12.94118 0.00000 0.00000 1.620966 1.320172 1.029097 
56 13.33333 0.00000 0.00000 1.653131 1.336757 1.030605 
57 13.72549 0.00000 0.00000 1.686248 1.353832 1.032156 
58 14.11765 0.00000 0.00000 1.720324 1.371401 1.033753 
59 14.50980 0.00000 0.00000 1.755367 1.389470 1.035395 
60 14.90196 0.00000 0.00000 1.791385 1.408041 1.037083 
61 15.29412 0.00000 0.00000 1.828385 1.427118 1.038817 
62 15.68627 0.00000 0.00000 1.866376 1.446706 1.040597 
63 16.07843 0.00000 0.00000 1.905363 1.466808 1.042424 
64 16.47059 0.00000 0.00000 1.945356 1.487429 1.044298 
65 16.86275 0.00000 0.00000 1.986360 1.508571 1.046219 
66 17.25490 0.00000 0.00000 2.028384 1.530238 1.048188 
67 17.64706 0.00000 0.00000 2.071434 1.552435 1.050206 
68 18.03922 0.00000 0.00000 2.115517 1.575164 1.052271 
69 18.43137 0.00000 0.00000 2.160640 1.598430 1.054386 
70 18.82353 0.00000 0.00000 2.206811 1.622235 1.056549 
71 19.21569 0.00000 0.00000 2.254035 1.646585 1.058762 
72 19.60784 0.00000 0.00000 2.302320 1.671481 1.061024 
73 20.00000 0.00000 0.00000 2.351673 1.696927 1.063337 
74 20.39216 0.00000 0.00000 2.402100 1.722927 1.065700 
75 20.78431 0.00000 0.00000 2.453608 1.749485 1.068114 
76 21.17647 0.00000 0.00000 2.506203 1.776603 1.070578 
77 21.56863 0.00000 0.00000 2.559891 1.804285 1.073094 
78 21.96078 0.00000 0.00000 2.614680 1.832534 1.075661 
79 22.35294 0.00000 0.00000 2.670574 1.861354 1.078280 
80 22.74510 0.00000 0.00000 2.727582 1.890747 1.080951 
81 23.13725 0.00000 0.00000 2.785709 1.920717 1.083675 
82 23.52941 0.00000 0.00000 2.844960 1.951268 1.086452 
83 23.92157 0.00000 0.00000 2.905343 1.982401 1.089281 
84 24.31373 0.00000 0.00000 2.966864 2.014121 1.092164 
85 24.70588 0.00000 0.00000 3.029528 2.046431 1.095100 
86 25.09804 0.00000 0.00000 3.093341 2.079333 1.098090 
87 25.49020 0.00000 0.00000 3.158309 2.112831 1.101135 
88 25.88235 0.00000 0.00000 3.224439 2.146928 1.104233 
89 26.27451 0.00000 0.00000 3.291736 2.181626 1.107387 
90 26.66667 0.00000 0.00000 3.360206 2.216930 1.110595 
91 27.05882 0.00000 0.00000 3.429854 2.252841 1.113859 
92 27.45098 0.00000 0.00000 3.500687 2.289362 1.117178 
93 27.84314 0.00000 0.00000 3.572710 2.326498 1.120553 
94 28.23529 0.00000 0.00000 3.645928 2.364249 1.123984 
95 28.62745 0.00000 0.00000 3.720348 2.402620 1.127471 
96 29.01961 0.00000 0.00000 3.795975 2.441614 1.131015 
97 29.41176 0.00000 0.00000 3.872815 2.481233 1.134615 
98 100.0000 100.0000 100.0000 95.10649 100.0000 108.8440 
99 30.19608 0.00000 0.00000 4.030153 2.562357 1.141988 
100 30.58824 0.00000 0.00000 4.110662 2.603867 1.145760 
101 30.98039 0.00000 0.00000 4.192406 2.646015 1.149591 
102 31.37255 0.00000 0.00000 4.275389 2.688801 1.153479 
103 31.76471 0.00000 0.00000 4.359617 2.732229 1.157426 
104 32.15686 0.00000 0.00000 4.445095 2.776302 1.161431 
105 32.54902 0.00000 0.00000 4.531829 2.821022 1.165495 
106 32.94118 0.00000 0.00000 4.619823 2.866392 1.169619 
107 33.33333 0.00000 0.00000 4.709083 2.912415 1.173801 
108 33.72549 0.00000 0.00000 4.799613 2.959093 1.178043 
109 34.11765 0.00000 0.00000 4.891420 3.006429 1.182345 
110 34.50980 0.00000 0.00000 4.984508 3.054425 1.186707 
111 34.90196 0.00000 0.00000 5.078882 3.103085 1.191129 
112 35.29412 0.00000 0.00000 5.174547 3.152410 1.195612 
113 35.68627 0.00000 0.00000 5.271509 3.202404 1.200155 
114 36.07843 0.00000 0.00000 5.369771 3.253068 1.204760 
115 36.47059 0.00000 0.00000 5.469340 3.304406 1.209425 
116 36.86275 0.00000 0.00000 5.570220 3.356420 1.214153 
117 37.25490 0.00000 0.00000 5.672416 3.409113 1.218941 
118 37.64706 0.00000 0.00000 5.775932 3.462486 1.223792 
119 38.03922 0.00000 0.00000 5.880774 3.516543 1.228705 
120 38.43137 0.00000 0.00000 5.986947 3.571286 1.233680 
121 38.82353 0.00000 0.00000 6.094455 3.626717 1.238717 
122 39.21569 0.00000 0.00000 6.203302 3.682840 1.243818 
123 39.60784 0.00000 0.00000 6.313494 3.739655 1.248981 
124 40.00000 0.00000 0.00000 6.425036 3.797166 1.254208 
125 40.39216 0.00000 0.00000 6.537932 3.855376 1.259498 
126 40.78431 0.00000 0.00000 6.652186 3.914286 1.264852 
127 41.17647 0.00000 0.00000 6.767804 3.973899 1.270269 
128 41.56863 0.00000 0.00000 6.884790 4.034217 1.275751 
129 41.96078 0.00000 0.00000 7.003148 4.095243 1.281297 
130 42.35294 0.00000 0.00000 7.122884 4.156979 1.286908 
131 42.74510 0.00000 0.00000 7.244001 4.219427 1.292583 
132 43.13725 0.00000 0.00000 7.366504 4.282590 1.298323 
133 100.0000 100.0000 100.0000 95.10649 100.0000 108.8440 
134 43.92157 0.00000 0.00000 7.615687 4.411070 1.310000 
135 44.31373 0.00000 0.00000 7.742376 4.476391 1.315936 
136 44.70588 0.00000 0.00000 7.870468 4.542436 1.321938 
137 45.09804 0.00000 0.00000 7.999969 4.609207 1.328006 
138 45.49020 0.00000 0.00000 8.130883 4.676707 1.334141 
139 45.88235 0.00000 0.00000 8.263214 4.744937 1.340342 
140 46.27451 0.00000 0.00000 8.396967 4.813900 1.346609 
141 46.66667 0.00000 0.00000 8.532145 4.883599 1.352943 
142 47.05882 0.00000 0.00000 8.668754 4.954035 1.359344 
143 47.45098 0.00000 0.00000 8.806797 5.025210 1.365813 
144 47.84314 0.00000 0.00000 8.946279 5.097127 1.372349 
145 48.23529 0.00000 0.00000 9.087204 5.169789 1.378952 
146 48.62745 0.00000 0.00000 9.229576 5.243196 1.385624 
147 49.01961 0.00000 0.00000 9.373400 5.317352 1.392363 
148 49.41176 0.00000 0.00000 9.518679 5.392259 1.399170 
149 49.80392 0.00000 0.00000 9.665418 5.467918 1.406046 
150 50.19608 0.00000 0.00000 9.813621 5.544332 1.412991 
151 50.58824 0.00000 0.00000 9.963292 5.621503 1.420004 
152 50.98039 0.00000 0.00000 10.11444 5.699433 1.427087 
153 51.37255 0.00000 0.00000 10.26706 5.778124 1.434238 
154 51.76471 0.00000 0.00000 10.42116 5.857578 1.441459 
155 52.15686 0.00000 0.00000 10.57674 5.937798 1.448749 
156 52.54902 0.00000 0.00000 10.73381 6.018786 1.456110 
157 52.94118 0.00000 0.00000 10.89238 6.100543 1.463540 
158 53.33333 0.00000 0.00000 11.05244 6.183072 1.471040 
159 53.72549 0.00000 0.00000 11.21401 6.266374 1.478610 
160 54.11765 0.00000 0.00000 11.37707 6.350453 1.486252 
161 54.50980 0.00000 0.00000 11.54165 6.435309 1.493963 
162 54.90196 0.00000 0.00000 11.70774 6.520945 1.501746 
163 55.29412 0.00000 0.00000 11.87534 6.607363 1.509600 
164 55.68627 0.00000 0.00000 12.04447 6.694565 1.517525 
165 56.07843 0.00000 0.00000 12.21512 6.782553 1.525521 
166 56.47059 0.00000 0.00000 12.38730 6.871329 1.533589 
167 56.86275 0.00000 0.00000 12.56101 6.960895 1.541729 
168 57.25490 0.00000 0.00000 12.73626 7.051253 1.549941 
169 57.64706 0.00000 0.00000 12.91305 7.142405 1.558225 
170 58.03922 0.00000 0.00000 13.09138 7.234353 1.566581 
171 58.43137 0.00000 0.00000 13.27125 7.327099 1.575010 
172 58.82353 0.00000 0.00000 13.45268 7.420644 1.583511 
173 59.21569 0.00000 0.00000 13.63567 7.514992 1.592085 
174 59.60784 0.00000 0.00000 13.82021 7.610143 1.600733 
175 60.00000 0.00000 0.00000 14.00632 7.706100 1.609453 
176 60.39216 0.00000 0.00000 14.19399 7.802865 1.618247 
177 60.78431 0.00000 0.00000 14.38324 7.900440 1.627115 
178 61.17647 0.00000 0.00000 14.57405 7.998826 1.636056 
179 61.56863 0.00000 0.00000 14.76645 8.098025 1.645072 
180 61.96078 0.00000 0.00000 14.96042 8.198040 1.654161 
181 62.35294 0.00000 0.00000 15.15599 8.298872 1.663325 
182 62.74510 0.00000 0.00000 15.35314 8.400524 1.672563 
183 63.13725 0.00000 0.00000 15.55188 8.502996 1.681876 
184 63.52941 0.00000 0.00000 15.75222 8.606291 1.691263 
185 63.92157 0.00000 0.00000 15.95416 8.710411 1.700726 
186 64.31373 0.00000 0.00000 16.15770 8.815358 1.710263 
187 64.70588 0.00000 0.00000 16.36285 8.921134 1.719876 
188 65.09804 0.00000 0.00000 16.56961 9.027739 1.729565 
189 65.49020 0.00000 0.00000 16.77798 9.135178 1.739329 
190 65.88235 0.00000 0.00000 16.98797 9.243450 1.749168 
191 66.27451 0.00000 0.00000 17.19958 9.352558 1.759084 
192 66.66667 0.00000 0.00000 17.41282 9.462504 1.769076 
193 67.05882 0.00000 0.00000 17.62769 9.573290 1.779144 
194 67.45098 0.00000 0.00000 17.84419 9.684917 1.789289 
195 67.84314 0.00000 0.00000 18.06232 9.797387 1.799510 
196 68.23529 0.00000 0.00000 18.28209 9.910702 1.809809 
197 68.62745 0.00000 0.00000 18.50351 10.02486 1.820184 
198 69.01961 0.00000 0.00000 18.72657 10.13988 1.830636 
199 69.41176 0.00000 0.00000 18.95128 10.25574 1.841166 
200 69.80392 0.00000 0.00000 19.17764 10.37245 1.851772 
201 70.19608 0.00000 0.00000 19.40566 10.49002 1.862457 
202 70.58824 0.00000 0.00000 19.63534 10.60844 1.873219 
203 70.98039 0.00000 0.00000 19.86668 10.72772 1.884060 
204 71.37255 0.00000 0.00000 20.09969 10.84786 1.894978 
205 71.76471 0.00000 0.00000 20.33437 10.96886 1.905975 
206 72.15686 0.00000 0.00000 20.57072 11.09073 1.917050 
207 72.54902 0.00000 0.00000 20.80875 11.21346 1.928204 
208 100.0000 100.0000 100.0000 95.10649 100.0000 108.8440 
209 73.33333 0.00000 0.00000 21.28986 11.46152 1.950747 
210 73.72549 0.00000 0.00000 21.53294 11.58685 1.962138 
211 74.11765 0.00000 0.00000 21.77771 11.71306 1.973607 
212 74.50980 0.00000 0.00000 22.02418 11.84013 1.985156 
213 74.90196 0.00000 0.00000 22.27234 11.96809 1.996785 
214 75.29412 0.00000 0.00000 22.52220 12.09692 2.008493 
215 75.68627 0.00000 0.00000 22.77377 12.22662 2.020281 
216 76.07843 0.00000 0.00000 23.02704 12.35721 2.032149 
217 76.47059 0.00000 0.00000 23.28202 12.48868 2.044097 
218 76.86275 0.00000 0.00000 23.53872 12.62104 2.056125 
219 0.00000 0.00000 0.00000 1.000000 1.000000 1.000000 
220 77.64706 0.00000 0.00000 24.05727 12.88840 2.080423 
221 78.03922 0.00000 0.00000 24.31912 13.02342 2.092693 
222 78.43137 0.00000 0.00000 24.58271 13.15932 2.105045 
223 78.82353 0.00000 0.00000 24.84802 13.29612 2.117477 
224 79.21569 0.00000 0.00000 25.11507 13.43381 2.129990 
225 79.60784 0.00000 0.00000 25.38385 13.57239 2.142585 
226 80.00000 0.00000 0.00000 25.65437 13.71187 2.155261 
227 80.39216 0.00000 0.00000 25.92664 13.85226 2.168019 
228 80.78431 0.00000 0.00000 26.20065 13.99354 2.180858 
229 81.17647 0.00000 0.00000 26.47641 14.13572 2.193780 
230 81.56863 0.00000 0.00000 26.75392 14.27881 2.206784 
231 81.96078 0.00000 0.00000 27.03319 14.42280 2.219870 
232 82.35294 0.00000 0.00000 27.31422 14.56769 2.233038 
233 82.74510 0.00000 0.00000 27.59700 14.71350 2.246289 
234 83.13725 0.00000 0.00000 27.88156 14.86022 2.259623 
235 83.52941 0.00000 0.00000 28.16788 15.00785 2.273039 
236 83.92157 0.00000 0.00000 28.45597 15.15639 2.286539 
237 84.31373 0.00000 0.00000 28.74583 15.30584 2.300121 
238 84.70588 0.00000 0.00000 29.03748 15.45621 2.313787 
239 85.09804 0.00000 0.00000 29.33090 15.60751 2.327537 
240 85.49020 0.00000 0.00000 29.62611 15.75972 2.341370 
241 85.88235 0.00000 0.00000 29.92310 15.91285 2.355286 
242 86.27451 0.00000 0.00000 30.22189 16.06690 2.369287 
243 86.66667 0.00000 0.00000 30.52246 16.22188 2.383371 
244 87.05882 0.00000 0.00000 30.82484 16.37778 2.397540 
245 87.45098 0.00000 0.00000 31.12901 16.53461 2.411793 
246 87.84314 0.00000 0.00000 31.43498 16.69238 2.426130 
247 88.23529 0.00000 0.00000 31.74276 16.85107 2.440552 
248 88.62745 0.00000 0.00000 32.05234 17.01069 2.455059 
249 89.01961 0.00000 0.00000 32.36374 17.17125 2.469650 
250 89.41176 0.00000 0.00000 32.67695 17.33274 2.484327 
251 89.80392 0.00000 0.00000 32.99198 17.49517 2.499088 
252 90.19608 0.00000 0.00000 33.30883 17.65854 2.513935 
253 90.58824 0.00000 0.00000 33.62750 17.82285 2.528868 
254 90.98039 0.00000 0.00000 33.94800 17.98809 2.543886 
255 91.37255 0.00000 0.00000 34.27032 18.15429 2.558989 
256 91.76471 0.00000 0.00000 34.59448 18.32142 2.574179 
257 92.15686 0.00000 0.00000 34.92048 18.48951 2.589454 
258 92.54902 0.00000 0.00000 35.24831 18.65854 2.604816 
259 92.94118 0.00000 0.00000 35.57798 18.82852 2.620264 
260 93.33333 0.00000 0.00000 35.90949 18.99945 2.635798 
261 93.72549 0.00000 0.00000 36.24286 19.17133 2.651419 
262 94.11765 0.00000 0.00000 36.57807 19.34417 2.667126 
263 94.50980 0.00000 0.00000 36.91513 19.51796 2.682920 
264 94.90196 0.00000 0.00000 37.25405 19.69271 2.698802 
265 95.29412 0.00000 0.00000 37.59483 19.86841 2.714770 
266 95.68627 0.00000 0.00000 37.93747 20.04508 2.730825 
267 96.07843 0.00000 0.00000 38.28197 20.22271 2.746968 
268 96.47059 0.00000 0.00000 38.62834 20.40130 2.763199 
269 0.392157 0.00000 0.00000 1.012393 1.006390 1.000581 
270 29.80392 0.00000 0.00000 3.950872 2.521479 1.138273 
271 97.64706 0.00000 0.00000 39.67869 20.94286 2.812416 
272 98.03922 0.00000 0.00000 40.03255 21.12531 2.828997 
273 98.43137 0.00000 0.00000 40.38830 21.30874 2.845667 
274 98.82353 0.00000 0.00000 40.74594 21.49313 2.862425 
275 99.21569 0.00000 0.00000 41.10546 21.67850 2.879272 
276 99.60784 0.00000 0.00000 41.46687 21.86485 2.896207 
277 100.0000 0.00000 0.00000 41.83017 22.05217 2.913230 
278 0.00000 0.392157 0.00000 1.010746 1.021490 1.003582 
279 0.00000 0.784314 0.00000 1.021493 1.042980 1.007164 
280 0.00000 1.176471 0.00000 1.032239 1.064470 1.010747 
281 0.00000 1.568627 0.00000 1.042986 1.085959 1.014329 
282 0.00000 1.960784 0.00000 1.053732 1.107449 1.017911 
283 0.00000 2.352941 0.00000 1.064479 1.128939 1.021493 
284 0.00000 2.745098 0.00000 1.075225 1.150429 1.025075 
285 0.00000 3.137255 0.00000 1.085971 1.171919 1.028657 
286 0.00000 3.529412 0.00000 1.096718 1.193409 1.032240 
287 0.00000 3.921569 0.00000 1.107464 1.214899 1.035822 
288 0.00000 4.313725 0.00000 1.118485 1.236936 1.039495 
289 0.00000 4.705882 0.00000 1.130168 1.260299 1.043390 
290 0.00000 5.098039 0.00000 1.142496 1.284952 1.047499 
291 0.00000 5.490196 0.00000 1.155480 1.310916 1.051827 
292 0.00000 5.882353 0.00000 1.169129 1.338211 1.056377 
293 0.00000 6.274510 0.00000 1.183453 1.366854 1.061151 
294 0.00000 6.666667 0.00000 1.198460 1.396865 1.066154 
295 0.00000 7.058824 0.00000 1.214160 1.428261 1.071387 
296 0.00000 7.450980 0.00000 1.230562 1.461059 1.076855 
297 0.00000 7.843137 0.00000 1.247674 1.495279 1.082559 
298 0.00000 8.235294 0.00000 1.265505 1.530935 1.088502 
299 0.00000 8.627451 0.00000 1.284063 1.568046 1.094688 
300 0.00000 9.019608 0.00000 1.303356 1.606628 1.101120 
301 0.00000 9.411765 0.00000 1.323393 1.646696 1.107799 
302 0.00000 9.803922 0.00000 1.344182 1.688267 1.114728 
303 0.00000 10.19608 0.00000 1.365730 1.731357 1.121911 
304 0.00000 10.58824 0.00000 1.388044 1.775980 1.129349 
305 0.00000 10.98039 0.00000 1.411134 1.822153 1.137046 
306 0.00000 11.37255 0.00000 1.435006 1.869890 1.145003 
307 0.00000 11.76471 0.00000 1.459667 1.919205 1.153224 
308 0.00000 12.15686 0.00000 1.485125 1.970115 1.161710 
309 0.00000 12.54902 0.00000 1.511387 2.022632 1.170464 
310 0.00000 12.94118 0.00000 1.538461 2.076771 1.179488 
311 0.00000 13.33333 0.00000 1.566352 2.132546 1.188786 
312 0.00000 13.72549 0.00000 1.595069 2.189971 1.198358 
313 0.00000 14.11765 0.00000 1.624617 2.249060 1.208207 
314 0.00000 14.50980 0.00000 1.655004 2.309825 1.218337 
315 0.00000 14.90196 0.00000 1.686237 2.372281 1.228747 
316 0.00000 15.29412 0.00000 1.718321 2.436441 1.239442 
317 0.00000 15.68627 0.00000 1.751263 2.502317 1.250423 
318 0.00000 16.07843 0.00000 1.785071 2.569923 1.261693 
319 0.00000 16.47059 0.00000 1.819750 2.639270 1.273252 
320 0.00000 16.86275 0.00000 1.855306 2.710373 1.285104 
321 0.00000 17.25490 0.00000 1.891746 2.783243 1.297251 
322 0.00000 17.64706 0.00000 1.929076 2.857892 1.309695 
323 100.0000 100.0000 100.0000 95.10649 100.0000 108.8440 
324 0.00000 18.43137 0.00000 2.006430 3.012578 1.335479 
325 0.00000 18.82353 0.00000 2.046466 3.092639 1.348825 
326 0.00000 19.21569 0.00000 2.087416 3.174528 1.362475 
327 0.00000 19.60784 0.00000 2.129286 3.258256 1.376432 
328 0.00000 20.00000 0.00000 2.172081 3.343835 1.390697 
329 0.00000 20.39216 0.00000 2.215808 3.431276 1.405273 
330 0.00000 20.78431 0.00000 2.260472 3.520592 1.420161 
331 0.00000 21.17647 0.00000 2.306079 3.611792 1.435363 
332 0.00000 21.56863 0.00000 2.352634 3.704889 1.450882 
333 0.00000 21.96078 0.00000 2.400143 3.799894 1.466718 
334 0.00000 22.35294 0.00000 2.448611 3.896817 1.482874 
335 0.00000 22.74510 0.00000 2.498044 3.995670 1.499352 
336 0.00000 23.13725 0.00000 2.548448 4.096463 1.516154 
337 0.00000 23.52941 0.00000 2.599827 4.199207 1.533280 
338 0.00000 23.92157 0.00000 2.652187 4.303912 1.550734 
339 0.00000 0.00000 0.00000 1.000000 1.000000 1.000000 
340 0.00000 24.70588 0.00000 2.759871 4.519251 1.586629 
341 0.00000 25.09804 0.00000 2.815206 4.629904 1.605074 
342 0.00000 0.00000 0.00000 1.000000 1.000000 1.000000 
343 0.00000 25.88235 0.00000 2.928886 4.857232 1.642967 
344 0.00000 26.27451 0.00000 2.987241 4.973926 1.662419 
345 0.00000 26.66667 0.00000 3.046613 5.092654 1.682210 
346 0.00000 27.05882 0.00000 3.107008 5.213426 1.702342 
347 0.00000 27.45098 0.00000 3.168429 5.336252 1.722816 
348 0.00000 27.84314 0.00000 3.230883 5.461142 1.743634 
349 0.00000 28.23529 0.00000 3.294373 5.588105 1.764797 
350 0.00000 28.62745 0.00000 3.358905 5.717151 1.786308 
351 0.00000 29.01961 0.00000 3.424484 5.848290 1.808168 
352 0.00000 29.41176 0.00000 3.491114 5.981531 1.830378 
353 0.00000 29.80392 0.00000 3.558800 6.116884 1.852940 
354 0.00000 30.19608 0.00000 3.627547 6.254359 1.875856 
355 0.00000 30.58824 0.00000 3.697359 6.393964 1.899127 
356 0.00000 30.98039 0.00000 3.768242 6.535710 1.922755 
357 0.00000 31.37255 0.00000 3.840199 6.679605 1.946741 
358 0.00000 31.76471 0.00000 3.913236 6.825658 1.971087 
359 0.00000 32.15686 0.00000 3.987357 6.973879 1.995794 
360 0.00000 32.54902 0.00000 4.062567 7.124277 2.020864 
361 0.00000 32.94118 0.00000 4.138870 7.276861 2.046299 
362 0.00000 33.33333 0.00000 4.216270 7.431640 2.072099 
363 0.00000 33.72549 0.00000 4.294772 7.588623 2.098267 
364 0.00000 34.11765 0.00000 4.374381 7.747818 2.124803 
365 0.00000 34.50980 0.00000 4.455100 7.909235 2.151710 
366 0.00000 34.90196 0.00000 4.536935 8.072882 2.178988 
367 0.00000 35.29412 0.00000 4.619890 8.238768 2.206640 
368 0.00000 35.68627 0.00000 4.703968 8.406901 2.234667 
369 0.00000 36.07843 0.00000 4.789175 8.577291 2.263069 
370 0.00000 36.47059 0.00000 4.875515 8.749946 2.291849 
371 0.00000 36.86275 0.00000 4.962991 8.924874 2.321008 
372 0.00000 37.25490 0.00000 5.051608 9.102084 2.350547 
373 0.00000 37.64706 0.00000 5.141371 9.281584 2.380469 
374 0.00000 38.03922 0.00000 5.232283 9.463383 2.410773 
375 0.00000 38.43137 0.00000 5.324349 9.647488 2.441462 
376 0.00000 38.82353 0.00000 5.417572 9.833909 2.472536 
377 0.00000 39.21569 0.00000 5.511958 10.02265 2.503999 
378 0.00000 39.60784 0.00000 5.607509 10.21373 2.535849 
379 0.00000 40.00000 0.00000 5.704231 10.40715 2.568090 
380 0.00000 40.39216 0.00000 5.802126 10.60291 2.600722 
381 0.00000 40.78431 0.00000 5.901200 10.80103 2.633747 
382 0.00000 41.17647 0.00000 6.001456 11.00151 2.667166 
383 0.00000 41.56863 0.00000 6.102899 11.20437 2.700980 
384 0.00000 41.96078 0.00000 6.205531 11.40961 2.735192 
385 0.00000 42.35294 0.00000 6.309358 11.61723 2.769801 
386 0.00000 42.74510 0.00000 6.414382 11.82725 2.804809 
387 0.00000 43.13725 0.00000 6.520609 12.03967 2.840218 
388 0.00000 43.52941 0.00000 6.628042 12.25451 2.876030 
389 0.00000 43.92157 0.00000 6.736684 12.47176 2.912244 
390 0.00000 44.31373 0.00000 6.846540 12.69144 2.948863 
391 0.00000 44.70588 0.00000 6.957613 12.91356 2.985888 
392 0.00000 45.09804 0.00000 7.069908 13.13812 3.023320 
393 0.00000 45.49020 0.00000 7.183428 13.36513 3.061160 
394 0.00000 45.88235 0.00000 7.298177 13.59459 3.099410 
395 0.00000 46.27451 0.00000 7.414158 13.82652 3.138071 
396 0.00000 46.66667 0.00000 7.531376 14.06093 3.177143 
397 0.00000 47.05882 0.00000 7.649834 14.29781 3.216630 
398 0.00000 47.45098 0.00000 7.769535 14.53718 3.256531 
399 0.00000 47.84314 0.00000 7.890485 14.77904 3.296848 
400 0.00000 48.23529 0.00000 8.012686 15.02341 3.337581 
401 0.00000 48.62745 0.00000 8.136141 15.27029 3.378734 
402 0.00000 49.01961 0.00000 8.260855 15.51968 3.420305 
403 0.00000 49.41176 0.00000 8.386832 15.77160 3.462298 
404 0.00000 49.80392 0.00000 8.514074 16.02605 3.504712 
405 0.00000 50.19608 0.00000 8.642586 16.28304 3.547550 
406 0.00000 50.58824 0.00000 8.772371 16.54257 3.590812 
407 0.00000 50.98039 0.00000 8.903432 16.80465 3.634500 
408 0.00000 51.37255 0.00000 9.035774 17.06930 3.678614 
409 0.00000 51.76471 0.00000 9.169400 17.33651 3.723156 
410 0.00000 52.15686 0.00000 9.304312 17.60630 3.768127 
411 0.00000 52.54902 0.00000 9.440516 17.87867 3.813529 
412 0.00000 52.94118 0.00000 9.578014 18.15363 3.859362 
413 0.00000 53.33333 0.00000 9.716809 18.43118 3.905627 
414 0.00000 53.72549 0.00000 9.856906 18.71134 3.952327 
415 0.00000 54.11765 0.00000 9.998308 18.99410 3.999461 
